X: 757
T: Move Up To Me
M:6/8
L:1/8
B:O'Neill's 757
R:Jig
Z:"Transcribed by Bob Safranek, rjs@gsp.org"
K:G
   (d/c/) | B2 d dBd | ece dBG | Bcd de=f | AFA ABc  |
	    B2 d dBd | ece dBG | BdB cAF  | GAG G2  :|
|:   d    | geg  fdf | ece dBG | geg fdf  | ece d2 d |
            geg  fdf | ece dBG | BdB cAF  | GAG G2  :|


